web/packages/design/src/ResourceIcon/assets/tableau.svg

<svg width="72" height="72" viewBox="0 0 72 72" fill="none" xmlns="http://www.w3.org/2000/svg">
<g clip-path="url(#clip0_16966_12053)">
<path d="M34.0303 48.4819H37.9706V37.7356H47.881V33.9147H37.9706V23.1685H34.0303V33.9147H24.2393V37.7356H34.0303V48.4819Z" fill="#E8762D"/>
<path d="M15.7616 64.0044H19.1049V54.4521H27.9407V51.4671H19.1049V41.7954H15.7616V51.4671H6.92578V54.4521H15.7616V64.0044Z" fill="#C72037"/>
<path d="M52.8954 29.4968H56.2387V19.9445H65.1939V17.0789H56.2387V7.40723H52.8954V17.0789H44.0596V19.9445H52.8954V29.4968Z" fill="#5B879B"/>
<path d="M34.6264 71.5266H37.4921V64.7207H43.5816V62.2132H37.4921V55.4072H34.6264V62.2132H28.6562V64.7207H34.6264V71.5266Z" fill="#5C6692"/>
<path d="M15.881 29.4968H18.9855V19.8251H27.9407V17.0789H18.9855V7.40723H15.881V17.0789H6.92578V19.8251H15.881V29.4968Z" fill="#EB9129"/>
<path d="M63.0444 43.8252H65.91V37.1386H71.9996V34.5118H65.91V27.8252H63.0444V34.5118H57.0742V37.1386H63.0444V43.8252Z" fill="#5C6692"/>
<path fill-rule="evenodd" clip-rule="evenodd" d="M52.8954 64.0044H56.2387V54.4521H65.1939V51.4671H56.2387V41.7954H52.8954V51.4671H44.0596V54.4521H52.8954V64.0044Z" fill="#1F457E"/>
<path d="M43.1045 9.07895V7.0491H37.1343V0.481934H34.9851V7.0491H29.0149V9.07895H34.9851V15.6461H37.1343V9.07895H43.1045ZM5.97015 43.3476H8.1194V36.7804H14.0896V34.7506H8.1194V28.3028H5.97015V34.7506H0V36.8998L5.97015 36.7804V43.3476Z" fill="#7199A6"/>
</g>
<defs>
<clipPath id="clip0_16966_12053">
<rect width="72" height="72" fill="white" transform="translate(0 0.00195312)"/>
</clipPath>
</defs>
</svg>

<svg xmlns="http://www.w3.org/2000/svg" width="72" height="72" fill="none" viewBox="0 0 72 72"><g clip-path="url(#clip0_16966_12053)"><path fill="#e8762d" d="M34.03 48.482h3.94V37.736h9.911v-3.821h-9.91V23.169h-3.94v10.746h-9.792v3.82h9.791z"/><path fill="#c72037" d="M15.762 64.004h3.343v-9.552h8.836v-2.985h-8.836v-9.672h-3.343v9.672H6.926v2.985h8.836z"/><path fill="#5b879b" d="M52.895 29.497h3.344v-9.552h8.955v-2.866h-8.955V7.407h-3.344v9.672H44.06v2.866h8.835z"/><path fill="#5c6692" d="M34.626 71.527h2.866V64.72h6.09v-2.508h-6.09v-6.806h-2.866v6.806h-5.97v2.508h5.97z"/><path fill="#eb9129" d="M15.881 29.497h3.104v-9.672h8.956V17.08h-8.955V7.407H15.88v9.672H6.926v2.746h8.955z"/><path fill="#5c6692" d="M63.044 43.825h2.866V37.14H72v-2.627h-6.09v-6.687h-2.866v6.687h-5.97v2.627h5.97z"/><path fill="#1f457e" fill-rule="evenodd" d="M52.895 64.004h3.344v-9.552h8.955v-2.985h-8.955v-9.672h-3.344v9.672H44.06v2.985h8.835z" clip-rule="evenodd"/><path fill="#7199a6" d="M43.105 9.079v-2.03h-5.97V.482h-2.15v6.567h-5.97v2.03h5.97v6.567h2.15V9.08zM5.97 43.348h2.15V36.78h5.97v-2.03H8.12v-6.447H5.97v6.448H0V36.9l5.97-.12z"/></g><defs><clipPath id="clip0_16966_12053"><path fill="#fff" d="M0 .002h72v72H0z"/></clipPath></defs></svg>
